X:1     %Music
T:Who will shoe my Foot?
B:Randolph, V, 1982. Ozark Folksongs, Illinois Press, Urbana
S:Isaac Hobbes, Micheldever, Hants, May 1906
Z:Randolph, V
F:http://www.folkinfo.org/songs
M:3/4     %Meter
L:1/8     %
K:Bb
B2 |(d2c2) d2 |(e2d2) e2 |f3 g fd | B4
w:Oh who_ will shoe_ my nar-row, nar-row foot,
c2 |(d2c2) d2 |(e2d2) c2 |B6 |
w: And who_ will glove_ my hand, 
z4 B2 |(d2c2) d2 |(e2d2) e2 |f3 g fd | B4
w:And who_ will wrap_ my nar-row, nar-row waist
dd |(c2f2) d2 |(c2f2) A2 |B4  |]
w:With a new-*made Lon-*don band?" 